X:1
T:Children of Jerusalem
T:Children of Jerusalem
T:Curwen’s Tune Book, 1842
T:John Henley (1800-1842)
T:Public Domain Courtesy of the Cyber Hymnal™
T:Public Domain Courtesy of the Cyber Hymnal™
C:Curwen’s Tune Book, 1842
Z:Public Domain
Z:Courtesy of the Cyber Hymnal™
%%score ( 1 2 ) ( 3 4 )
L:1/8
Q:1/4=160
M:4/4
K:E
V:1 treble 
V:2 treble 
V:3 bass 
V:4 bass 
V:1
 E4 (E2 G2) | (G2 F2) (A2 F2) | [B,E]4 [B,D]4 | [B,E]8 | [EG]4 ([EG]2 [GB]2) | %5
w: 1.~Child- ren *|of * Je- *|ru- sa-|lem|Sang the *|
w: 2.~We are *|taught * to *|love the|Lord,|We are *|
w: 3.~Par- ents, *|teach- * ers, *|old and|young,|All u- *|
 ([GB]2 [EG]2) (e2 c2) | [FB]4 ^A4 | [DB]8 | [DB]4 ([DF]2 [EG]2) | [FA]6 [GB]2 | [Ac]4 [Ec]4 | %11
w: praise * of *|Je- sus’|name:|Child- ren, *|too, of|mod- ern|
w: taught * to *|read His|Word;|We are *|taught the|way to|
w: nite * to *|swell the|song;|High- er *|and yet|high- er|
 [EB]8 | [Ge]4 [GB]4 | ([Bd]2 [Ac]2) ([GB]2 [FA]2) | [EG]4 [DF]4 x2 | E8 || %16
w: days|Join to|sing * the *|Sav- ior’s|praise.|
w: Heav’n:|Praise for|all * to *|God be|giv’n.|
w: rise,|’Til ho-|san- * nas *|fill the|skies.|
"^Refrain" [B,E]2 z2 [DF]2 z2 | [EG]4 z2 D2 | [CE]2 [CE]2 [DF]2 [DF]2 | [EG]8 | [EG]2 z2 [DA]2 z2 | %21
w: |||||
w: Hark, hark,|hark! While|in- fant voic- es|sing,|Hark, hark,|
w: |||||
 [EB]4 z2 F2 | [EG]2 [EG]2 [F^A]2 [EA]2 | [DB]8 | e6 [GB]2 | [Ac]4 [GB]4 | e6 [GB]2 | [Ac]4 [GB]4 | %28
w: |||||||
w: hark! While|in- fant voic- es|sing|Loud ho-|san- nas,|loud ho-|san- nas,|
w: |||||||
 e6 B2 [GB]2 | [Bd]2 [Ac]2 ([GB]2 [FA]2) | [EG]4 [DF]4 x2 | E8 |] %32
w: ||||
w: Loud ho- san-|* * nas *|to our|king.|
w: ||||
V:2
 E4 E4 | C4 C4 | x8 | x8 | x8 | x4 G4 | x4 (F2 E2) | x8 | x8 | x8 | x8 | x8 | x8 | x8 | x10 | E8 || %16
 x8 | x6 D2 | x8 | x8 | x8 | x6 F2 | x8 | x8 | (G2 A2 B2) x2 | x8 | (G2 A2 B2) x2 | x8 | G2 A2 x6 | %29
 x8 | x10 | E8 |] %32
V:3
 [E,G,]4 [E,G,]4 | [A,,A,]4 [A,,A,]4 | [B,,G,]4 [B,,F,]4 | [E,G,]8 | [E,B,]4 [E,B,]4 | %5
 [E,B,]4 (C2 E2) | [F,D]4 [F,C]4 | [B,,B,]8 | B,4 B,4 | [F,B,]6 [E,B,]2 | A,4 A,4 | [E,G,]8 | %12
 [E,B,]4 [E,E]4 | [A,E]4 [A,,C]4 | B,6 z2 A,2 | [E,G,]8 || [E,G,]2 z2 [B,,B,]2 z2 | %17
 [E,B,]4 z2 [B,,A,]2 | [C,G,]2 [C,G,]2 [B,,B,]2 [B,,B,]2 | [E,B,]8 | [E,B,]2 z2 [F,B,]2 z2 | %21
 [G,B,]4 z2 [D,B,]2 | [E,B,]2 [C,C]2 [F,C]2 [F,C]2 | B,8 | B,6 [E,E]2 | [A,E]4 [E,E]4 | %26
 B,6 [E,E]2 | [A,E]4 [E,E]4 | B,6 G,2 [E,E]2 | [A,E]4 [A,C]4 | B,6 z2 A,2 | [E,G,]8 |] %32
V:4
 x8 | x8 | x8 | x8 | x8 | x4 E,4 | x8 | x8 | (B,,2 B,2) (A,2 G,2) | x8 | (A,,2 B,,2) (C,2 D,2) | %11
 x8 | x8 | x8 | B,,4 B,,4 x2 | x8 || x8 | x8 | x8 | x8 | x8 | x8 | x8 | B,8 | (E,2 F,2 G,2) x2 | %25
 x8 | (E,2 F,2 G,2) x2 | x8 | E,2 F,2 x6 | x8 | B,4 B,,4 x2 | x8 |] %32

